X: 10961
T: COCK UP YOUR BEAVER
O: Scottish air
Q: "Not too fast."
%R: slip-jig, triple hornpipe
B: W. Hamilton "Universal Tune-Book" Vol. 1 Glasgow 1844 p.96 #1
S: http://imslp.org/wiki/Hamilton's_Universal_Tune-Book_(Various)
Z: 2016 John Chambers <jc:trillian.mit.edu>
M: 3/2
L: 1/8
K: G
% - - - - - - - - - - - - - - - - - - - - - - - - -
e2 |\
dd3 G2B3 AG2 | A3B A2 c4 e2 |\
dd3 G3 B2 AB2 | G3f d2B3 cd2 |\
e3d (ef)g2 d2B2 | A3B A2 c4 e2 |\
d4 c2B3 cA2 | G2g2 d2 B4 d2 :|
|:\
G2g2 d2B2 d2B2 | A3a A2 c4 BA |\
G2g2 d2B2 d2B2 | G2g2 d2 B4 d2 |\
c3d (ef)g2 d2B2 | A3B A2 c4 e2 |\
g3f e2d2 B2d2 | e2g2 d2 B4 d2 :|
% - - - - - - - - - - - - - - - - - - - - - - - - -

%%sep 1 1 500
%%sep 1 1 500

